X: 1377
T: An Seanchai Muimhneach
R: jig
M: 6/8
K: Edorian
|:~E3 EFD EFD EFD|~E3 EFG A2 G FED|
~E3 EFD EFD EFG|ABA DFA A2 G FED:|
|:~B3 EFA B2 A Bcd|~B3 EFG A2 G FED|
~B3 EFA B2 A Bcd|ABA DFA A2 G FED:|
|:g2 e fed efd BAF|~B3 EFG A2 G FED|
g2 e fed edc d2B|ABA DFA A2 G FED:|

